X: 1
T: Mickey The Mauler
M: 6/8
L: 1/8
R: jig
K: Dmaj
DEF A2d|dAF E2D|EFG E2D|EFG E2D|
EFG A2d|dAF E2D|EFG EAG|1 FDD DFE:|2 FDD D2e||
fed cde|fdd d2e|fdf edc|BAA A2e|
fed cde|fdd dA/B/c|dAF EAG|1 FDD D2e:|2 FDD DFE||
